icons/line/truck.svg

<svg width="24" height="24" viewBox="0 0 24 24" fill="none" xmlns="http://www.w3.org/2000/svg">
<path fill-rule="evenodd" clip-rule="evenodd" d="M2 5C2 4.44772 2.44772 4 3 4H13C13.5523 4 14 4.44772 14 5V7H17C17.2652 7 17.5196 7.10536 17.7071 7.29289L21.7071 11.2929C21.8946 11.4804 22 11.7348 22 12V17C22 17.5523 21.5523 18 21 18H19.8293C19.4175 19.1652 18.3062 20 17 20C15.6938 20 14.5825 19.1652 14.1707 18H13H9.82929C9.41746 19.1652 8.30622 20 7 20C5.69378 20 4.58254 19.1652 4.17071 18H3C2.44772 18 2 17.5523 2 17V5ZM16 17C16 17.5523 16.4477 18 17 18C17.5523 18 18 17.5523 18 17C18 16.4477 17.5523 16 17 16C16.4477 16 16 16.4477 16 17ZM19.8293 16C19.4175 14.8348 18.3062 14 17 14C15.6938 14 14.5825 14.8348 14.1707 16H14V9H16.5858L20 12.4142V16H19.8293ZM12 16H9.82929C9.41746 14.8348 8.30622 14 7 14C5.69378 14 4.58254 14.8348 4.17071 16H4V6H12V8V16ZM7 16C6.44772 16 6 16.4477 6 17C6 17.5523 6.44772 18 7 18C7.55228 18 8 17.5523 8 17C8 16.4477 7.55228 16 7 16Z" fill="currentColor"/>
</svg>

<svg width="24" height="24" fill="none" xmlns="http://www.w3.org/2000/svg"><path fill-rule="evenodd" clip-rule="evenodd" d="M2 5a1 1 0 011-1h10a1 1 0 011 1v2h3a1 1 0 01.707.293l4 4A1 1 0 0122 12v5a1 1 0 01-1 1h-1.17a3.001 3.001 0 01-5.66 0H9.83a3.001 3.001 0 01-5.66 0H3a1 1 0 01-1-1V5zm14 12a1 1 0 102 0 1 1 0 00-2 0zm3.83-1a3.001 3.001 0 00-5.66 0H14V9h2.586L20 12.414V16h-.17zM12 16H9.83a3.001 3.001 0 00-5.66 0H4V6h8v10zm-5 0a1 1 0 100 2 1 1 0 000-2z" fill="currentColor"/></svg>
